kwork_juristConsalt/img/svg/company.svg

<svg width="180" height="180" viewBox="0 0 180 180" fill="none" xmlns="http://www.w3.org/2000/svg">
<g clip-path="url(#clip0)">
<rect width="180" height="180" rx="90" fill="white"/>
<path fill-rule="evenodd" clip-rule="evenodd" d="M-1.37003 150.174C0.976457 138.834 1.60691 122.031 12.3693 118.664C24.5346 114.859 31.9864 133.893 44.1994 135.92C53.0791 137.393 61.9543 125.347 70.4027 128.294C78.6231 131.161 78.739 143.56 84.6261 150.019C92.8613 159.055 112.068 160.787 111.708 173.613C111.347 186.423 90.0065 187.881 83.2479 199.028C76.7401 209.762 85.2647 228.598 74.6145 234.792C63.8158 241.072 53.5025 224.195 41.5381 223.285C31.3835 222.513 21.2002 233.314 11.6784 230.007C2.19169 226.713 -4.51731 216.703 -6.712 206.53C-8.81464 196.783 -0.688788 187.262 0.271544 177.131C1.14426 167.924 -3.25447 159.281 -1.37003 150.174Z" fill="#1C3C89"/>
</g>
<defs>
<clipPath id="clip0">
<rect width="180" height="180" rx="90" fill="white"/>
</clipPath>
</defs>
</svg>

<svg width="180" height="180" fill="none" xmlns="http://www.w3.org/2000/svg"><g clip-path="url(#clip0)"><rect width="180" height="180" rx="90" fill="#fff"/><path fill-rule="evenodd" clip-rule="evenodd" d="M-1.37 150.174c2.346-11.34 2.977-28.143 13.74-31.51 12.165-3.805 19.616 15.229 31.83 17.256 8.88 1.473 17.754-10.573 26.203-7.626 8.22 2.867 8.336 15.266 14.223 21.725 8.235 9.036 27.442 10.768 27.082 23.594-.361 12.81-21.701 14.268-28.46 25.415-6.508 10.734 2.017 29.57-8.633 35.764-10.8 6.28-21.112-10.597-33.077-11.507-10.154-.772-20.338 10.029-29.86 6.722-9.486-3.294-16.195-13.304-18.39-23.477-2.103-9.747 6.023-19.268 6.984-29.399.872-9.207-3.526-17.85-1.642-26.957z" fill="#1C3C89"/></g><defs><clipPath id="clip0"><rect width="180" height="180" rx="90" fill="#fff"/></clipPath></defs></svg>
